styles/emoji-one/1f4ca.svg

<svg xmlns="http://www.w3.org/2000/svg" viewBox="0 0 64 64" enable-background="new 0 0 64 64"><g fill="#333"><path d="m0 0h4v64h-4z"/><path d="m0 60h64v4h-64z"/></g><path fill="#fb4f00" d="m38.667 60h12v-53.33l-12 13.334z"/><path fill="#5c750a" d="m21.333 60h11.997v-40l-11.997 13.33z"/><path fill="#106995" d="m4 60h12v-26.67l-12 13.336z"/><path fill="#9aca0a" d="m33.33 20h13.334v40h-13.334z"/><path fill="#21adf1" d="M 16,33.333 H29.333 V60 H16 z"/><path fill="#fc9100" d="M 50.667,6.666 H64 V60 H50.667 z"/></svg>

<svg xmlns="http://www.w3.org/2000/svg" viewBox="0 0 64 64"><g fill="#333"><path d="M0 0h4v64H0z"/><path d="M0 60h64v4H0z"/></g><path fill="#fb4f00" d="M38.667 60h12V6.67l-12 13.334z"/><path fill="#5c750a" d="M21.333 60H33.33V20L21.333 33.33z"/><path fill="#106995" d="M4 60h12V33.33L4 46.666z"/><path fill="#9aca0a" d="M33.33 20h13.334v40H33.33z"/><path fill="#21adf1" d="M16 33.333h13.333V60H16z"/><path fill="#fc9100" d="M50.667 6.666H64V60H50.667z"/></svg>
